public/img/expIcons/bash.svg

<svg xmlns="http://www.w3.org/2000/svg" viewBox="0 0 512 512">
  <path fill="#fff" stroke="#000" d="M244 26.42l-22 2.01c-16.75 2.43-33.12 6.8-49 12.62C116.45 61.79 70.26 106.51 45.31 161 30.19 194.02 24.58 227.94 25 264l.91 10c3.61 51.63 24.54 99.61 59.26 138 23.47 25.96 53.46 45.65 85.83 58.6 19.4 7.76 50.13 15.15 71 15.4h24c20.39-.03 50.91-6.76 70-14.06C400.39 447.29 450.6 395.1 472.92 330c8.91-25.98 12.4-53.64 12.08-81-.14-11.43-2.34-26.71-4.6-38C466.41 141.06 421.87 82.69 358 50.75c-22.47-11.23-38.1-16.98-63-21.16-13.51-2.27-37.69-4.79-51-3.17zm-7 26.86c20.83-1.93 56.21.49 76 7.05 28.37 9.42 54.67 22.67 77 42.84 30.12 27.2 54.39 65.01 63.76 104.83 2.82 11.95 3.5 23.85 4.33 36l.91 10-1 14v9c-.63 7.9-3.12 23.36-5.15 31-8.54 32-25.38 61.28-47.13 86-17.5 19.88-42.53 37.36-66.72 48.14-26.06 11.61-40.71 15.01-69 16.95l-20 .91-10-.91c-22.02-1.51-36.21-3.85-57-11.9-26.02-10.08-47.54-23.21-68-42.28C83.06 375.15 59.89 332.35 53.87 289L52 271c-.25-21.77-.45-43.72 4.89-65 5.2-20.67 17.66-47.3 29.46-65 7.17-10.74 14.56-18.91 23.65-28 25.81-25.81 54.77-43.52 90-53.57 12.29-3.51 24.47-4.35 37-6.15zm-78.57 91.74c-3.85 4.23-1.28 6.18-4.03 9.59-2.08 2.6-6.36 3.54-9.87 7.57-6.41 7.37-6.1 19.64.68 26.64 5.64 5.82 14.85 7.91 19.79 11.15 2.99 1.96 6.29 5.06 5.63 9.03-.37 2.2-1.88 4.04-3.69 5.26-7.42 5.03-19.45-1.66-21.9-1.56-3.19.13-5 3.47-5.45 6.3-1.41 8.81 11.36 7.47 14.81 11.43 2.84 3.26.4 8.51 6.64 9.42 10.03 1.46 5.99-7.06 10.27-11.38 2.63-2.65 7.06-3.34 10.89-8.51 7.74-10.47 3.92-23.93-6.2-31.17-6.25-4.47-20.96-7.77-20.46-14.8.58-8.12 11.17-7.21 16.46-5.45 2.05.68 4.62 2.12 6.79 1.23 2.37-.98 7.14-8 2.05-11.77-3.1-2.29-8.03-2.21-10.24-4.56-1.77-1.88-1.42-4.38-2.33-6.29-1.89-3.97-6.44-3.47-9.84-2.13zm33 90c-1.7 1.87-2.61 3.13-1.96 5.87 1.13 4.73 6.79 4.1 10.53 4.11h40c2.48 0 6.59.22 8.69-1.17 2.49-1.67 3.19-6.84.71-8.81-1.59-1.25-5.41-1.02-7.4-1.02h-34c-5.05 0-11.95-.8-16.57 1.02z"/>
</svg>

<?xml version="1.0" encoding="UTF-8" standalone="no"?>
<!DOCTYPE svg PUBLIC "-//W3C//DTD SVG 20010904//EN"
              "http://www.w3.org/TR/2001/REC-SVG-20010904/DTD/svg10.dtd">

<svg xmlns="http://www.w3.org/2000/svg"
     width="1.70667in" height="1.70667in"
     viewBox="0 0 512 512">
  <path id="Seleção"
        fill="white" stroke="black" stroke-width="1" 
        d="M 244.00,26.42
           C 244.00,26.42 222.00,28.43 222.00,28.43
             205.25,30.86 188.88,35.23 173.00,41.05
             116.45,61.79 70.26,106.51 45.31,161.00
             30.19,194.02 24.58,227.94 25.00,264.00
             25.00,264.00 25.91,274.00 25.91,274.00
             29.52,325.63 50.45,373.61 85.17,412.00
             108.64,437.96 138.63,457.65 171.00,470.60
             190.40,478.36 221.13,485.75 242.00,486.00
             242.00,486.00 266.00,486.00 266.00,486.00
             286.39,485.97 316.91,479.24 336.00,471.94
             400.39,447.29 450.60,395.10 472.92,330.00
             481.83,304.02 485.32,276.36 485.00,249.00
             484.86,237.57 482.66,222.29 480.40,211.00
             466.41,141.06 421.87,82.69 358.00,50.75
             335.53,39.52 319.90,33.77 295.00,29.59
             281.49,27.32 257.31,24.80 244.00,26.42 Z
           M 237.00,53.28
           C 257.83,51.35 293.21,53.77 313.00,60.33
             341.37,69.75 367.67,83.00 390.00,103.17
             420.12,130.37 444.39,168.18 453.76,208.00
             456.58,219.95 457.26,231.85 458.09,244.00
             458.09,244.00 459.00,254.00 459.00,254.00
             459.00,254.00 458.00,268.00 458.00,268.00
             458.00,268.00 458.00,277.00 458.00,277.00
             457.37,284.90 454.88,300.36 452.85,308.00
             444.31,340.00 427.47,369.28 405.72,394.00
             388.22,413.88 363.19,431.36 339.00,442.14
             312.94,453.75 298.29,457.15 270.00,459.09
             270.00,459.09 250.00,460.00 250.00,460.00
             250.00,460.00 240.00,459.09 240.00,459.09
             217.98,457.58 203.79,455.24 183.00,447.19
             156.98,437.11 135.46,423.98 115.00,404.91
             83.06,375.15 59.89,332.35 53.87,289.00
             53.87,289.00 52.00,271.00 52.00,271.00
             51.75,249.23 51.55,227.28 56.89,206.00
             62.09,185.33 74.55,158.70 86.35,141.00
             93.52,130.26 100.91,122.09 110.00,113.00
             135.81,87.19 164.77,69.48 200.00,59.43
             212.29,55.92 224.47,55.08 237.00,53.28 Z
           M 158.43,145.02
           C 154.58,149.25 157.15,151.20 154.40,154.61
             152.32,157.21 148.04,158.15 144.53,162.18
             138.12,169.55 138.43,181.82 145.21,188.82
             150.85,194.64 160.06,196.73 165.00,199.97
             167.99,201.93 171.29,205.03 170.63,209.00
             170.26,211.20 168.75,213.04 166.94,214.26
             159.52,219.29 147.49,212.60 145.04,212.70
             141.85,212.83 140.04,216.17 139.59,219.00
             138.18,227.81 150.95,226.47 154.40,230.43
             157.24,233.69 154.80,238.94 161.04,239.85
             171.07,241.31 167.03,232.79 171.31,228.47
             173.94,225.82 178.37,225.13 182.20,219.96
             189.94,209.49 186.12,196.03 176.00,188.79
             169.75,184.32 155.04,181.02 155.54,173.99
             156.12,165.87 166.71,166.78 172.00,168.54
             174.05,169.22 176.62,170.66 178.79,169.77
             181.16,168.79 185.93,161.77 180.84,158.00
             177.74,155.71 172.81,155.79 170.60,153.44
             168.83,151.56 169.18,149.06 168.27,147.15
             166.38,143.18 161.83,143.68 158.43,145.02 Z
           M 191.43,235.02
           C 189.73,236.89 188.82,238.15 189.47,240.89
             190.60,245.62 196.26,244.99 200.00,245.00
             200.00,245.00 240.00,245.00 240.00,245.00
             242.48,245.00 246.59,245.22 248.69,243.83
             251.18,242.16 251.88,236.99 249.40,235.02
             247.81,233.77 243.99,234.00 242.00,234.00
             242.00,234.00 208.00,234.00 208.00,234.00
             202.95,234.00 196.05,233.20 191.43,235.02 Z" />
</svg>
